packages/tokens/icons/report2/size16Px.svg

<svg viewBox="0 0 16 16" fill="none" xmlns="http://www.w3.org/2000/svg" width="1em" height="1em"><path d="M13.25 3.99985C13.5261 3.99986 13.75 3.77601 13.75 3.49987C13.75 3.22373 13.5262 2.99986 13.25 2.99985L13.25 3.99985ZM12.5 3.49982L12.4999 3.99982L12.5 3.49982ZM12.9142 2.91399L13.2678 2.56044L12.9142 2.91399ZM12.0858 2.08556L11.7322 2.43911L12.0858 2.08556ZM11.5 13.9998L4.5 13.9998V14.9998L11.5 14.9998V13.9998ZM3 12.4998L3 3.49977H2L2 12.4998H3ZM4.5 1.99977L10.6716 1.99977V0.999775L4.5 0.999775V1.99977ZM13 4.3282L13 12.4998H14L14 4.3282H13ZM11 1.49023V2.49982L12 2.49982V1.49023L11 1.49023ZM12.4999 3.99982L13.25 3.99985L13.25 2.99985L12.5 2.99982L12.4999 3.99982ZM11.7322 2.43911L12.5607 3.26754L13.2678 2.56044L12.4393 1.73201L11.7322 2.43911ZM11 2.49982C11 3.32822 11.6715 3.99978 12.4999 3.99982L12.5 2.99982C12.2238 2.99981 12 2.77595 12 2.49982L11 2.49982ZM14 4.3282C14 3.66516 13.7366 3.02928 13.2678 2.56044L12.5607 3.26754C12.842 3.54885 13 3.93038 13 4.3282H14ZM10.6716 1.99977C11.0694 1.99977 11.4509 2.15781 11.7322 2.43911L12.4393 1.73201C11.9705 1.26317 11.3346 0.999775 10.6716 0.999775V1.99977ZM4.5 13.9998C3.67157 13.9998 3 13.3282 3 12.4998H2C2 13.8805 3.11929 14.9998 4.5 14.9998V13.9998ZM11.5 14.9998C12.8807 14.9998 14 13.8805 14 12.4998H13C13 13.3282 12.3284 13.9998 11.5 13.9998V14.9998ZM3 3.49977C3 2.67135 3.67157 1.99977 4.5 1.99977V0.999775C3.11929 0.999775 2 2.11906 2 3.49977H3Z" fill="currentColor"/><path d="M5.5 9.5H10.5M5.5 11.5H10.5" stroke="currentColor" stroke-linecap="round"/><path d="M4.5 6.60176L6.32609 4.64258L8.15217 6.64258L9.36957 5.21401L10.587 6.64258L11.5 5.49972" stroke="currentColor" stroke-linecap="round" stroke-linejoin="round"/></svg>

<svg xmlns="http://www.w3.org/2000/svg" fill="none" viewBox="0 0 16 16" width="1em" height="1em"><path fill="currentColor" d="M13.25 4a.5.5 0 0 0 0-1v1Zm-.75-.5V4v-.5Zm.414-.586.354-.354-.354.354Zm-.828-.828-.354.353.354-.353ZM11.5 14h-7v1h7v-1ZM3 12.5v-9H2v9h1ZM4.5 2h6.172V1H4.5v1ZM13 4.328V12.5h1V4.328h-1ZM11 1.49V2.5h1V1.49h-1ZM12.5 4h.75V3h-.75v1Zm-.768-1.56.829.828.707-.708-.829-.828-.707.707ZM11 2.5A1.5 1.5 0 0 0 12.5 4V3a.5.5 0 0 1-.5-.5h-1Zm3 1.828a2.5 2.5 0 0 0-.732-1.768l-.707.708A1.5 1.5 0 0 1 13 4.328h1ZM10.672 2a1.5 1.5 0 0 1 1.06.44l.707-.708A2.5 2.5 0 0 0 10.672 1v1ZM4.5 14A1.5 1.5 0 0 1 3 12.5H2A2.5 2.5 0 0 0 4.5 15v-1Zm7 1a2.5 2.5 0 0 0 2.5-2.5h-1a1.5 1.5 0 0 1-1.5 1.5v1ZM3 3.5A1.5 1.5 0 0 1 4.5 2V1A2.5 2.5 0 0 0 2 3.5h1Z"/><path stroke="currentColor" stroke-linecap="round" d="M5.5 9.5h5m-5 2h5"/><path stroke="currentColor" stroke-linecap="round" stroke-linejoin="round" d="m4.5 6.602 1.826-1.96 1.826 2L9.37 5.215l1.217 1.429L11.5 5.5"/></svg>
